X:1
T:Finished Is the Battle Now
T:Finished Is the Battle Now
T:R. E. De Reef, 1899
T:Latin, translated John Mason Neale, 1851, alt.
T:Public Domain Courtesy of the Cyber Hymnal™
C:R. E. De Reef, 1899
Z:Public Domain
Z:Courtesy of the Cyber Hymnal™
%%score ( 1 2 ) ( 3 4 )
L:1/8
Q:1/4=104
M:4/4
K:Bb
V:1 treble 
V:2 treble 
V:3 bass 
V:4 bass 
V:1
 [FB]>[FB] | [Ge]4 [Fd]2 [GB]>[GB] | [Ac]4 B2 z2 | [FB]2 F2 ([EG][FA]) ([FB][Gc]) | %4
w: 1.~Hal- le-|lu- jah! Hal- le-|lu- jah!|Fin- ished is * the *|
w: 2.~Hal- le-|lu- jah! Hal- le-|lu- jah!|Af- ter sharp * death *|
w: 3.~Hal- le-|lu- jah! Hal- le-|lu- jah!|On the third * morn- *|
w: 4.~Hal- le-|lu- jah! Hal- le-|lu- jah!|He hath closèd * hell’s *|
w: 5.~Hal- le-|lu- jah! Hal- le-|lu- jah!|By Thy wounds * we *|
 [Fd]2 c2 [DB]4 | [=Ec]2 (cd) [Fc]2 ([EB][FA]) | [FG]2 [=EB]2 [FA]4 | (BF) (GA) [DB]2 F2 | %8
w: bat- tle now:|Crown- èd * is the *|Vic- tor’s brow!|Hence * with * sad- ness!|
w: Him be- fell,|Je- sus * Christ hath *|con- quered hell.|Earth * is * sing- ing,|
w: ing He~a- rose,|Bright with * vic- tory *|o’er His foes.|Sing * we * laud- ing,|
w: bra- zen door,|And Heav’n~is * o- pen *|ev- er- more!|Hence * with * sad- ness!|
w: call on Thee,|Now from * death to *|set us free,|That * our * liv- ing|
 (GA) (Be) [Fd]2 [FB]2 | ([EG][FA][FB][Gc] [Fd]2) ([Ge][Fd]) | c4 [DB]4 |] %11
w: Sing * with * glad- ness,|Hal- * * * * le- *|lu- jah!|
w: Heaven * is * ring- ing,|Hal- * * * * le- *|lu- jah!|
w: and * ap- * plaud- ing,|Hal- * * * * le- *|lu- jah!|
w: Sing * with * glad- ness,|Hal- * * * * le- *|lu- jah!|
w: be * thanks- * giv- ing!|Hal- * * * * le- *|lu- jah!|
V:2
 x2 | x8 | x4 B2 x2 | x2 F2 x4 | x2 (FE) x4 | x2 G2 x4 | x8 | F2 E2 x F2 x | E2 G2 x4 | x8 | %10
 (G2 FE) x4 |] %11
V:3
 [B,D]>[B,D] | [E,B,]4 B,2 [G,D]>[G,D] | [F,E]4 [B,D]2 z2 | [B,D]2 [D,B,]2 (B,C) B,2 | %4
 [F,B,]2 [F,A,]2 B,4 | [G,B,]2 [=E,B,]2 [F,A,]2 C2 | [B,D]2 C2 (C2 E2) | %7
 [B,D]2 (EC) [B,D]2 [B,D]2 | [B,E]2 (EB,) B,2 [B,D]2 | (B,C B,2) [F,B,]2 B,2 | %10
 ([E,B,]2 [F,A,]2) [B,,B,]4 |] %11
V:4
 x2 | x4 B,2 x2 | x8 | x4 E,2 (D,E,) | x4 B,4 | x6 (G,A,) | x2 C2 F,4 | x2 B,2 x4 | x2 B,2 B,2 x2 | %9
 E,2 (D,E, x C,D,) x | x8 |] %11

